Catalina-light/actions/16/transform-affect-gradient.svg

<svg xmlns="http://www.w3.org/2000/svg" width="16" height="16" viewBox="0 0 16 16">
 <defs>
  <style id="current-color-scheme" type="text/css">
   .ColorScheme-Text { color:#5c616c; } .ColorScheme-Highlight { color:#5294e2; }
  </style>
 </defs>
 <path style="fill:currentColor" class="ColorScheme-Text" d="M 2 2 L 2 3 L 2.5 3 L 13 3 L 13 7.5 L 13 8 L 14 8 L 14 7.5 L 14 2 L 2.5 2 L 2 2 z M 2 5 L 2 6 L 2.5 6 L 9 6 L 9 8.5 L 9 9 L 10 9 L 10 8.5 L 10 5 L 2.5 5 L 2 5 z M 11.007812 9.0136719 L 11.007812 11.007812 L 9.0058594 11.007812 L 9.0058594 12.003906 L 11.007812 12.003906 L 11.007812 14 L 14.011719 11.505859 L 11.007812 9.0136719 z M 4 10.992188 L 4 12.021484 L 5 12.021484 L 5 10.992188 L 4 10.992188 z M 6.0175781 10.992188 L 6.0175781 12.021484 L 6.5019531 12.021484 L 7.5039062 12.021484 L 7.9882812 12.021484 L 7.9882812 10.992188 L 7.5039062 10.992188 L 6.5019531 10.992188 L 6.0175781 10.992188 z"/>
 <path style="fill:currentColor;opacity:0.3" class="ColorScheme-Text" d="M 2 2 L 2 5 L 2 8 L 2 9 L 10 9 L 10 8 L 14 8 L 14 2 L 2 2 z"/>
</svg>

<svg width="16" height="16" viewBox="0 0 16 16" xmlns="http://www.w3.org/2000/svg">
<defs>
<style id="current-color-scheme" type="text/css">.ColorScheme-Text { color:#5c616c; } .ColorScheme-Highlight { color:#5294e2; }</style>
</defs>
<path class="ColorScheme-Text" d="m2 2v1h11v5h1v-6h-12zm0 3v1h7v3h1v-4h-8zm9.0078 4.0137v1.9941h-2.002v0.99609h2.002v1.9961l3.0039-2.4941-3.0039-2.4922zm-7.0078 1.9785v1.0293h1v-1.0293h-1zm2.0176 0v1.0293h1.9708v-1.0293h-1.9708z" fill="currentColor"/>
<path class="ColorScheme-Text" d="m2 2v7h8v-1h4v-6h-12z" fill="currentColor" opacity=".3"/>
</svg>
